X: 1061
T: Hicazkâr Sirto
C: Kemânî Sebuh
O: Turkey
F: http://compmusic.upf.edu/node/140
N: hicazkar--sirto--nimsofyan----kemani_sebuh
N: makam= hicazkar
N: form= sirto
N: usul= nimsofyan = 2/4
M: 2/4
L: 1/16
K: C _1/4B _7/8e _7/8A ^f
Q: 1/4=96
%%MIDI tuningsystem comma53
f2g6  | gfed cBc2  | Bcde fgaf  | g6z2  | fgab c'2ba  | 
w:  1. HANE  |   |   |   |   | 
gagf ede2  | (3fgagf feed  | d3e dfed  | 
w:   |   |   | 
cBcd edef  | gfga bagf  | gabc' bc'ba  | 
w:   |   |   | 
bagf edc2  | BcdB c3d  | e3f g2fe  | dccB BAAG  | 
w:   |   |   |   | 
G6z2  | baag gffe  | f2g4fe  | def4ed  | (3fgagf edc2  | 
w:   |  2. HANE  |   |   |   | 
baag gffe  | f2g4fe  | gabc' d'c'ba  | g6z2  | 
w:   |   |   |   | 
baag gffe  | f2g4fe  | def4ed  | (3fgagf edc2  | 
w:   |   |   |   | 
BcdB c3d  | e3f g2fe  | dccB BAAG  | G6z2  | 
w:   |   |   |   | 
G2c2 c3/2B/ce  | d3/2^c/df ede=c  | defg agf^d  | 
w:  3. HANE  |   |   | 
dcde dcBA  | G2c2 c3/2B/ce  | d3/2^c/df ede=c  | 
w:   |   |   | 
defg fedf  | e6ed  | defg agfa  | g6fe  | 
w:   |   |   |   | 
fgac' bagf  | bagf edc2  | BcdB c3d  | 
w:   |   |   | 
e3f g2fe  | dccB BAAG  | G6z2  | baag gffe  | 
w:   |   |   |  2. HANE  | 
f2g4fe  | def4ed  | (3fgagf edc2  | baag gffe  | 
w:   |   |   |   | 
f2g4fe  | gabc' d'c'ba  | g6z2  | baag gffe  | 
w:   |   |   |   | 
f2g4fe  | def4ed  | (3fgagf edc2  | BcdB c3d  | 
w:   |   |   |   | 
e3f g2fe  | dccB BAAG  | G6z2  | =f2g4f_1/4e  | \
w:   |   |   |  4. HANE  | 
c'bag =f_1/4ed2  | 
w:   | 
_1/4e=fga ^fgaf  | g6z2  | =fg=a_b baag  | \
w:   |   |   | 
g=f=ag f_1/4eed  | 
w:   | 
dcg=f f_1/4eed  | d3e dfed  | cBcd edef  | 
w:   |   |   | 
gfga bagf  | gabc' bc'ba  | bagf edc2  | 
w:   |   |   | 
BcdB c3d  | e3f g2fe  | dccB BAAG  | G6z2  | 
w:   |   |   |   | 
baag gffe  | f2g4fe  | def4ed  | (3fgagf edc2  | 
w:  2. HANE  |   |   |   | 
baag gffe  | f2g4fe  | gabc' d'c'ba  | g6z2  | 
w:   |   |   |   | 
baag gffe  | f2g4fe  | def4ed  | (3fgagf edc2  | 
w:   |   |   |   | 
BcdB c3d  | e3f g2fe  | dccB BAAG  | G6z2  | 
w:   |   |   |   | 
|


